build/assets/img/svg/bckg-slide-main.svg

<svg width="450" height="210" viewBox="0 0 450 210" fill="none" xmlns="http://www.w3.org/2000/svg">
<g clip-path="url(#clip0)">
<path d="M335.268 182.239L309.284 167.236L335.268 152.233V182.239Z" fill="#0A3D76"/>
<path d="M267.011 182.239L292.994 167.236L267.011 152.233V182.239Z" fill="#0A3D76"/>
<path d="M258.443 182.239L232.459 167.236L258.443 152.233V182.239Z" fill="#0A3D76"/>
<path d="M190.508 182.239L216.491 167.236L190.508 152.233V182.239Z" fill="#0A3D76"/>
<path d="M181.941 182.239L155.957 167.236L181.941 152.233V182.239Z" fill="#0A3D76"/>
<path d="M114.005 182.239L139.988 167.236L114.005 152.233V182.239Z" fill="#0A3D76"/>
<path d="M105.438 182.239L79.4541 167.236L105.438 152.233V182.239Z" fill="#0A3D76"/>
<path d="M37.5024 182.239L63.4458 167.236L37.5024 152.233V182.239Z" fill="#0A3D76"/>
<path d="M28.9352 182.239L2.95166 167.236L28.9352 152.233V182.239Z" fill="#0A3D76"/>
<path d="M411.891 182.239L385.907 167.236L411.891 152.233V182.239Z" fill="#0A3D76"/>
<path d="M343.634 182.239L369.617 167.236L343.634 152.233V182.239Z" fill="#0A3D76"/>
<path d="M420.257 182.239L446.201 167.236L420.257 152.233V182.239Z" fill="#0A3D76"/>
<path d="M332.774 135.098L311.737 122.951L332.774 110.804V135.098Z" fill="#0E4E96"/>
<path d="M409.397 135.098L388.361 122.951L409.397 110.804V135.098Z" fill="#2B6BB3"/>
<path d="M346.087 135.098L367.124 122.951L346.087 110.804V135.098Z" fill="#2B6BB3"/>
<path d="M269.504 110.804L290.54 122.951L269.504 135.098V110.804Z" fill="#0E4E96"/>
<path d="M256.191 110.804L235.154 122.951L256.191 135.098V110.804Z" fill="#2B6BB3"/>
<path d="M422.71 135.098L443.747 122.951L422.71 110.804V135.098Z" fill="#0E4E96"/>
<path d="M270.43 88.5209L287.484 78.6665L270.43 68.812V88.5209Z" fill="#2B6BB3"/>
<path d="M331.849 88.5209L314.794 78.6665L331.849 68.812V88.5209Z" fill="#2B6BB3"/>
<path d="M347.053 88.5209L364.067 78.6665L347.053 68.812V88.5209Z" fill="#639CDC"/>
<path d="M408.472 88.5209L391.418 78.6665L408.472 68.812V88.5209Z" fill="#2B6BB3"/>
<path d="M423.636 88.5209L440.69 78.6665L423.636 68.812V88.5209Z" fill="#639CDC"/>
<path d="M272.601 40.7369L283.34 34.5025L272.601 28.3082V40.7369Z" fill="#2B6BB3"/>
<path d="M329.677 40.7369L318.938 34.5025L329.677 28.3082V40.7369Z" fill="#639CDC"/>
<path d="M349.225 40.7369L359.964 34.5025L349.225 28.3082V40.7369Z" fill="#2B6BB3"/>
<path d="M406.34 40.7369L395.601 34.5025L406.34 28.3082V40.7369Z" fill="#639CDC"/>
<path d="M425.848 40.7369L436.587 34.5025L425.848 28.3082V40.7369Z" fill="#2B6BB3"/>
<path d="M192.881 110.844L213.917 122.951L192.881 135.138V110.844Z" fill="#2B6BB3"/>
<path d="M116.257 110.844L137.294 122.951L116.257 135.138V110.844Z" fill="#2B6BB3"/>
<path d="M179.567 110.844L158.531 122.951L179.567 135.138V110.844Z" fill="#0E4E96"/>
<path d="M102.944 110.844L81.9077 122.951L102.944 135.138V110.844Z" fill="#0E4E96"/>
<path d="M39.6343 110.804L60.6705 122.951L39.6343 135.098V110.804Z" fill="#0E4E96"/>
<path d="M26.3609 110.804L5.32471 122.951L26.3609 135.098V110.804Z" fill="#0E4E96"/>
<path d="M372.272 158.668L348.903 145.194L372.272 131.679V158.668Z" fill="#0A3D76"/>
<path d="M373.559 204.441L347.576 189.438L373.559 174.436V204.441Z" fill="#0A3D76"/>
<path d="M370.06 111.85L351.115 100.909L370.06 89.9689V111.85Z" fill="#2B6BB3"/>
<path d="M383.253 158.668L406.622 145.194L383.253 131.679V158.668Z" fill="#0E4D94"/>
<path d="M381.925 204.441L407.909 189.438L381.925 174.436V204.441Z" fill="#0A3D76"/>
<path d="M385.465 111.85L404.41 100.909L385.465 89.9689V111.85Z" fill="#0E4E96"/>
<path d="M448.896 158.668L425.486 145.194L448.896 131.679V158.668Z" fill="#0A3D76"/>
<path d="M450.182 204.441L424.199 189.438L450.182 174.436V204.441Z" fill="#0A3D76"/>
<path d="M446.643 111.85L427.738 100.909L446.643 89.9689V111.85Z" fill="#0E4E96"/>
<path d="M142.442 158.668L119.073 145.194L142.442 131.679V158.668Z" fill="#0A3D76"/>
<path d="M153.383 158.668L176.792 145.194L153.383 131.679V158.668Z" fill="#0E4D94"/>
<path d="M219.025 158.668L195.656 145.194L219.025 131.679V158.668Z" fill="#0A3D76"/>
<path d="M230.006 158.668L253.375 145.194L230.006 131.679V158.668Z" fill="#2B6BB3"/>
<path d="M76.7993 131.679L100.168 145.154L76.7993 158.668V131.679Z" fill="#0A3D76"/>
<path d="M65.8188 131.679L42.4497 145.154L65.8188 158.668V131.679Z" fill="#0E4D94"/>
<path d="M0.17627 131.679L23.5454 145.154L0.17627 158.668V131.679Z" fill="#0A3D76"/>
<path d="M295.648 158.668L272.279 145.194L295.648 131.679V158.668Z" fill="#2B6BB3"/>
<path d="M296.936 204.441L270.992 189.438L296.936 174.436V204.441Z" fill="#0A3D76"/>
<path d="M293.436 111.85L274.492 100.909L293.436 89.9689V111.85Z" fill="#639CDC"/>
<path d="M290.138 15.5175L284.789 12.4204L290.138 9.32324V15.5175Z" fill="#639CDC"/>
<path d="M312.14 15.5175L317.489 12.4204L312.14 9.32324V15.5175Z" fill="#639CDC"/>
<path d="M5.8877 15.5175L11.2373 12.4204L5.8877 9.32324V15.5175Z" fill="#639CDC"/>
<path d="M388.723 15.5175L394.112 12.4204L388.723 9.32324V15.5175Z" fill="#639CDC"/>
<path d="M60.0673 15.5175L54.7178 12.4204L60.0673 9.32324V15.5175Z" fill="#639CDC"/>
<path d="M136.69 15.5175L131.341 12.4204L136.69 9.32324V15.5175Z" fill="#639CDC"/>
<path d="M235.275 15.5175L240.624 12.4204L235.275 9.32324V15.5175Z" fill="#639CDC"/>
<path d="M306.629 158.668L329.998 145.194L306.629 131.679V158.668Z" fill="#0A3D76"/>
<path d="M305.342 204.441L331.286 189.438L305.342 174.436V204.441Z" fill="#0A3D76"/>
<path d="M220.353 204.441L194.369 189.438L220.353 174.436V204.441Z" fill="#0A3D76"/>
<path d="M228.719 204.441L254.702 189.438L228.719 174.436V204.441Z" fill="#0A3D76"/>
<path d="M143.729 204.441L117.746 189.438L143.729 174.436V204.441Z" fill="#0A3D76"/>
<path d="M152.096 204.441L178.079 189.438L152.096 174.436V204.441Z" fill="#0A3D76"/>
<path d="M67.1059 204.441L41.1626 189.438L67.1059 174.436V204.441Z" fill="#0A3D76"/>
<path d="M75.4722 204.441L101.456 189.438L75.4722 174.436V204.441Z" fill="#0A3D76"/>
<path d="M-1.11084 204.441L24.8325 189.438L-1.11084 174.436V204.441Z" fill="#0A3D76"/>
<path d="M308.842 111.85L327.786 100.909L308.842 89.9689V111.85Z" fill="#0E4E96"/>
<path d="M2.38818 111.85L21.3328 100.909L2.38818 89.9689V111.85Z" fill="#0E4E96"/>
<path d="M155.032 89.9689L173.936 100.909L155.032 111.85V89.9689Z" fill="#2B6BB3"/>
<path d="M140.914 89.9689L121.969 100.909L140.914 111.85V89.9689Z" fill="#0E4E96"/>
<path d="M78.4082 89.9689L97.3529 100.909L78.4082 111.85V89.9689Z" fill="#0E4E96"/>
<path d="M64.4914 89.9689L45.5869 100.909L64.4914 111.85V89.9689Z" fill="#639CDC"/>
<path d="M232.218 89.9689L251.163 100.909L232.218 111.85V89.9689Z" fill="#639CDC"/>
<path d="M216.813 89.9689L197.909 100.909L216.813 111.85V89.9689Z" fill="#0E4E96"/>
<path d="M309.002 65.5138L324.327 56.6649L309.002 47.816V65.5138Z" fill="#2B6BB3"/>
<path d="M385.585 65.5138L400.95 56.6649L385.585 47.816V65.5138Z" fill="#2B6BB3"/>
<path d="M446.522 65.5138L431.197 56.6649L446.522 47.816V65.5138Z" fill="#2B6BB3"/>
<path d="M25.3955 88.5209L8.34131 78.6665L25.3955 68.812V88.5209Z" fill="#2B6BB3"/>
<path d="M40.5996 88.5209L57.6538 78.6665L40.5996 68.812V88.5209Z" fill="#639CDC"/>
<path d="M102.019 88.5209L84.9648 78.6665L102.019 68.812V88.5209Z" fill="#2B6BB3"/>
<path d="M117.223 88.5209L134.237 78.6665L117.223 68.812V88.5209Z" fill="#2B6BB3"/>
<path d="M23.2637 40.7369L12.5244 34.5025L23.2637 28.3082V40.7369Z" fill="#639CDC"/>
<path d="M42.8115 40.7369L53.5509 34.5025L42.8115 28.3082V40.7369Z" fill="#2B6BB3"/>
<path d="M99.8873 40.7369L89.1479 34.5025L99.8873 28.3082V40.7369Z" fill="#639CDC"/>
<path d="M119.435 40.7369L130.174 34.5025L119.435 28.3082V40.7369Z" fill="#639CDC"/>
<path d="M2.54932 65.5138L17.874 56.6649L2.54932 47.816V65.5138Z" fill="#2B6BB3"/>
<path d="M63.4458 65.5138L48.1211 56.6649L63.4458 47.816V65.5138Z" fill="#2B6BB3"/>
<path d="M178.844 88.5209L161.83 78.6665L178.844 68.812V88.5209Z" fill="#639CDC"/>
<path d="M194.047 88.5209L211.102 78.6665L194.047 68.812V88.5209Z" fill="#2B6BB3"/>
<path d="M255.466 88.5209L238.412 78.6665L255.466 68.812V88.5209Z" fill="#2B6BB3"/>
<path d="M176.752 40.7369L166.012 34.5025L176.752 28.3082V40.7369Z" fill="#2B6BB3"/>
<path d="M196.3 40.7369L207.039 34.5025L196.3 28.3082V40.7369Z" fill="#639CDC"/>
<path d="M253.375 40.7369L242.636 34.5025L253.375 28.3082V40.7369Z" fill="#639CDC"/>
<path d="M155.997 65.5138L171.322 56.6649L155.997 47.816V65.5138Z" fill="#2B6BB3"/>
<path d="M232.621 65.5138L247.945 56.6649L232.621 47.816V65.5138Z" fill="#2B6BB3"/>
</g>
<defs>
<clipPath id="clip0">
<rect width="450" height="210" fill="white"/>
</clipPath>
</defs>
</svg>

<svg width="450" height="210" fill="none" xmlns="http://www.w3.org/2000/svg"><g clip-path="url(#clip0)"><path d="M335.268 182.239l-25.984-15.003 25.984-15.003v30.006zm-68.257 0l25.983-15.003-25.983-15.003v30.006zm-8.568 0l-25.984-15.003 25.984-15.003v30.006zm-67.935 0l25.983-15.003-25.983-15.003v30.006zm-8.567 0l-25.984-15.003 25.984-15.003v30.006zm-67.936 0l25.983-15.003-25.983-15.003v30.006zm-8.567 0l-25.984-15.003 25.984-15.003v30.006zm-67.936 0l25.944-15.003-25.944-15.003v30.006zm-8.567 0L2.952 167.236l25.983-15.003v30.006zm382.956 0l-25.984-15.003 25.984-15.003v30.006zm-68.257 0l25.983-15.003-25.983-15.003v30.006zm76.623 0l25.944-15.003-25.944-15.003v30.006z" fill="#0A3D76"/><path d="M332.774 135.098l-21.037-12.147 21.037-12.147v24.294z" fill="#0E4E96"/><path d="M409.397 135.098l-21.036-12.147 21.036-12.147v24.294zm-63.31 0l21.037-12.147-21.037-12.147v24.294z" fill="#2B6BB3"/><path d="M269.504 110.804l21.036 12.147-21.036 12.147v-24.294z" fill="#0E4E96"/><path d="M256.191 110.804l-21.037 12.147 21.037 12.147v-24.294z" fill="#2B6BB3"/><path d="M422.71 135.098l21.037-12.147-21.037-12.147v24.294z" fill="#0E4E96"/><path d="M270.43 88.52l17.054-9.853-17.054-9.855v19.709zm61.419 0l-17.055-9.853 17.055-9.855v19.709z" fill="#2B6BB3"/><path d="M347.053 88.52l17.014-9.853-17.014-9.855v19.709z" fill="#639CDC"/><path d="M408.472 88.52l-17.054-9.853 17.054-9.855v19.709z" fill="#2B6BB3"/><path d="M423.636 88.52l17.054-9.853-17.054-9.855v19.709z" fill="#639CDC"/><path d="M272.601 40.737l10.739-6.235-10.739-6.194v12.429z" fill="#2B6BB3"/><path d="M329.677 40.737l-10.739-6.235 10.739-6.194v12.429z" fill="#639CDC"/><path d="M349.225 40.737l10.739-6.235-10.739-6.194v12.429z" fill="#2B6BB3"/><path d="M406.34 40.737l-10.739-6.235 10.739-6.194v12.429z" fill="#639CDC"/><path d="M425.848 40.737l10.739-6.235-10.739-6.194v12.429zm-232.967 70.107l21.036 12.107-21.036 12.187v-24.294zm-76.624 0l21.037 12.107-21.037 12.187v-24.294z" fill="#2B6BB3"/><path d="M179.567 110.844l-21.036 12.107 21.036 12.187v-24.294zm-76.623 0l-21.036 12.107 21.036 12.187v-24.294zm-63.31-.04l21.036 12.147-21.036 12.147v-24.294zm-13.274 0L5.326 122.951l21.036 12.147v-24.294z" fill="#0E4E96"/><path d="M372.272 158.668l-23.369-13.474 23.369-13.515v26.989zm1.287 45.773l-25.983-15.003 25.983-15.002v30.005z" fill="#0A3D76"/><path d="M370.06 111.85l-18.945-10.941 18.945-10.94v21.881z" fill="#2B6BB3"/><path d="M383.253 158.668l23.369-13.474-23.369-13.515v26.989z" fill="#0E4D94"/><path d="M381.925 204.441l25.984-15.003-25.984-15.002v30.005z" fill="#0A3D76"/><path d="M385.465 111.85l18.945-10.941-18.945-10.94v21.881z" fill="#0E4E96"/><path d="M448.896 158.668l-23.41-13.474 23.41-13.515v26.989zm1.286 45.773l-25.983-15.003 25.983-15.002v30.005z" fill="#0A3D76"/><path d="M446.643 111.85l-18.905-10.941 18.905-10.94v21.881z" fill="#0E4E96"/><path d="M142.442 158.668l-23.369-13.474 23.369-13.515v26.989z" fill="#0A3D76"/><path d="M153.383 158.668l23.409-13.474-23.409-13.515v26.989z" fill="#0E4D94"/><path d="M219.025 158.668l-23.369-13.474 23.369-13.515v26.989z" fill="#0A3D76"/><path d="M230.006 158.668l23.369-13.474-23.369-13.515v26.989z" fill="#2B6BB3"/><path d="M76.8 131.679l23.368 13.475-23.369 13.514v-26.989z" fill="#0A3D76"/><path d="M65.819 131.679l-23.37 13.475 23.37 13.514v-26.989z" fill="#0E4D94"/><path d="M.176 131.679l23.37 13.475-23.37 13.514v-26.989z" fill="#0A3D76"/><path d="M295.648 158.668l-23.369-13.474 23.369-13.515v26.989z" fill="#2B6BB3"/><path d="M296.936 204.441l-25.944-15.003 25.944-15.002v30.005z" fill="#0A3D76"/><path d="M293.436 111.85l-18.944-10.941 18.944-10.94v21.881zm-3.298-96.332l-5.349-3.098 5.349-3.097v6.194zm22.002 0l5.349-3.098-5.349-3.097v6.194zm-306.252 0l5.35-3.098-5.35-3.097v6.194zm382.835 0l5.389-3.098-5.389-3.097v6.194zm-328.656 0l-5.35-3.098 5.35-3.097v6.194zm76.623 0l-5.349-3.098 5.349-3.097v6.194zm98.585 0l5.349-3.098-5.349-3.097v6.194z" fill="#639CDC"/><path d="M306.629 158.668l23.369-13.474-23.369-13.515v26.989zm-1.287 45.773l25.944-15.003-25.944-15.002v30.005zm-84.989 0l-25.984-15.003 25.984-15.002v30.005zm8.366 0l25.983-15.003-25.983-15.002v30.005zm-84.99 0l-25.983-15.003 25.983-15.002v30.005zm8.367 0l25.983-15.003-25.983-15.002v30.005zm-84.99 0l-25.943-15.003 25.943-15.002v30.005zm8.366 0l25.984-15.003-25.984-15.002v30.005zm-76.582 0l25.942-15.003-25.943-15.002v30.005z" fill="#0A3D76"/><path d="M308.842 111.85l18.944-10.941-18.944-10.94v21.881zm-306.454 0l18.945-10.941-18.945-10.94v21.881z" fill="#0E4E96"/><path d="M155.032 89.969l18.904 10.94-18.904 10.941V89.969z" fill="#2B6BB3"/><path d="M140.914 89.969l-18.945 10.94 18.945 10.941V89.969zm-62.506 0l18.945 10.94-18.945 10.941V89.969z" fill="#0E4E96"/><path d="M64.491 89.969l-18.904 10.94L64.49 111.85V89.969zm167.727 0l18.945 10.94-18.945 10.941V89.969z" fill="#639CDC"/><path d="M216.813 89.969l-18.904 10.94 18.904 10.941V89.969z" fill="#0E4E96"/><path d="M309.002 65.514l15.325-8.85-15.325-8.848v17.698zm76.583 0l15.365-8.85-15.365-8.848v17.698zm60.937 0l-15.325-8.85 15.325-8.848v17.698zM25.395 88.52L8.341 78.668l17.054-9.855v19.709z" fill="#2B6BB3"/><path d="M40.6 88.52l17.054-9.853L40.6 68.811V88.52z" fill="#639CDC"/><path d="M102.019 88.52l-17.054-9.853 17.054-9.855v19.709zm15.204 0l17.014-9.853-17.014-9.855v19.709z" fill="#2B6BB3"/><path d="M23.264 40.737l-10.74-6.235 10.74-6.194v12.429z" fill="#639CDC"/><path d="M42.812 40.737l10.739-6.235-10.74-6.194v12.429z" fill="#2B6BB3"/><path d="M99.887 40.737l-10.74-6.235 10.74-6.194v12.429zm19.548 0l10.739-6.235-10.739-6.194v12.429z" fill="#639CDC"/><path d="M2.55 65.514l15.324-8.85-15.325-8.848v17.698zm60.896 0l-15.325-8.85 15.325-8.848v17.698z" fill="#2B6BB3"/><path d="M178.844 88.52l-17.014-9.853 17.014-9.855v19.709z" fill="#639CDC"/><path d="M194.047 88.52l17.055-9.853-17.055-9.855v19.709zm61.419 0l-17.054-9.853 17.054-9.855v19.709zm-78.714-47.783l-10.74-6.235 10.74-6.194v12.429z" fill="#2B6BB3"/><path d="M196.3 40.737l10.739-6.235-10.739-6.194v12.429zm57.075 0l-10.739-6.235 10.739-6.194v12.429z" fill="#639CDC"/><path d="M155.997 65.514l15.325-8.85-15.325-8.848v17.698zm76.624 0l15.324-8.85-15.324-8.848v17.698z" fill="#2B6BB3"/></g><defs><clipPath id="clip0"><path fill="#fff" d="M0 0h450v210H0z"/></clipPath></defs></svg>
